source/img/icon-sprite/twitter.svg

<svg width="23" height="20" viewBox="0 0 23 20" fill="none" xmlns="http://www.w3.org/2000/svg">
<path d="M22.9571 4.24243C22.7628 3.83838 22.0826 3.93939 21.5968 3.83838H20.5279C20.6251 3.43434 20.8194 3.23232 21.0138 2.82828C21.1109 2.42424 21.3053 2.12121 21.2081 1.51515C21.3053 1.31313 21.4024 1.11111 21.4996 0.909089C21.5968 0.808079 21.694 0.404041 21.5968 0.202021C21.4996 7.67636e-07 21.3053 0 21.0138 0C20.9166 0 20.8194 0.101009 20.8194 0.101009C20.4308 0.505049 20.0421 1.11111 19.5562 1.51515H19.4591C19.3619 1.51515 19.4591 1.51515 19.3619 1.61616C19.2647 1.71717 19.0704 1.81818 18.9732 1.81818C18.6817 2.0202 18.4874 2.22222 18.0987 2.32323C17.6129 2.12121 16.9327 2.0202 16.2525 1.91919C15.0865 2.0202 14.0176 2.12121 13.3374 2.62626C12.4629 2.92929 11.8799 3.63636 11.2969 4.24243C11.2969 4.54546 11.0054 4.64646 10.9082 4.94949C10.9082 4.94949 10.9082 5.05051 10.811 5.05051C10.811 5.25253 10.7139 5.35354 10.7139 5.55556C10.7139 5.65657 10.9082 5.9596 10.7139 6.06061C9.93651 5.9596 9.25633 5.45455 8.67331 5.05051C7.99313 4.64646 7.21578 4.44444 6.63277 3.93939C5.95259 3.63636 5.36957 3.13131 4.88372 2.62626C4.68939 2.32323 4.39788 2.12121 4.20354 1.71717C3.81487 1.51515 4.00921 0.80808 3.52336 0.80808C3.23185 0.80808 3.23185 1.0101 3.13468 1.21212C3.03751 1.41414 2.74601 1.41414 2.74601 1.71717C2.74601 1.71717 2.74601 1.81818 2.64884 1.81818C2.4545 2.92929 2.16299 3.83838 2.16299 5.15151C2.26016 5.55555 2.4545 5.85858 2.74601 6.16161C2.35733 6.26263 2.06583 6.36364 1.87149 6.66667C1.77432 7.77778 2.26016 8.28283 2.55167 8.9899C2.64884 9.39394 2.94035 9.69697 3.13468 10C3.13468 10.202 3.32902 10.303 3.42619 10.404C3.42619 10.5051 3.52336 10.505 3.52336 10.6061C3.52336 10.7071 3.81487 10.8081 3.62053 10.8081C3.23185 10.9091 2.64884 10.9091 2.35733 11.2121C2.26016 11.5152 2.26016 12.0202 2.35733 12.3232C2.35733 12.5253 2.64884 12.6263 2.64884 12.8283C3.13468 13.2323 3.7177 13.5354 4.20354 13.9394C4.78656 14.1414 5.36957 14.2424 6.04975 14.3434C5.95258 14.6465 5.75825 14.9495 5.46674 15.0505C4.68939 15.4545 3.7177 15.5556 2.84318 15.7576C2.26016 15.7576 1.87149 15.9596 1.28848 15.9596C0.996969 16.0606 0.413953 16.0606 0.219615 16.1616C0.122446 16.2626 0.122445 16.2626 0.0252764 16.3636C-0.0718926 16.7677 0.122447 17.0707 0.413954 17.2727C0.413954 17.5758 0.608293 17.5758 0.802631 17.6768C0.8998 17.8788 1.09414 17.9798 1.1913 18.0808C1.67715 18.5859 2.4545 18.8889 3.03752 19.1919C3.81487 19.3939 4.59222 19.596 5.46674 19.697C6.34126 19.798 7.31295 19.798 8.18747 19.899H9.15916C9.645 20 10.3252 20 11.0054 20C11.1025 19.899 11.2969 19.899 11.4912 19.899C11.9771 19.596 12.6572 19.4949 13.0459 19.1919C13.6289 18.9899 14.0176 18.5859 14.6006 18.2828C15.4751 17.4748 16.4468 16.9697 17.0298 15.8586C17.2242 15.6566 17.4185 15.4545 17.4185 15.1515C17.71 14.9495 17.8072 14.6465 18.0015 14.4444C18.3902 14.0404 18.6817 13.5354 18.9732 13.0303C19.2647 12.5253 19.5562 11.9192 19.8477 11.4141C19.8477 11.0101 20.1393 10.9091 20.1393 10.505C20.3336 10.303 20.3336 9.79798 20.5279 9.59596C20.5279 9.29293 20.5279 9.19192 20.6251 8.9899C20.6251 7.67677 20.6251 6.56566 20.3336 5.55556C20.9166 5.35354 21.4996 5.25252 21.8883 4.94949C22.6656 5.25252 23.1515 4.84849 22.9571 4.24243ZM19.6534 8.28283C19.4591 9.19192 19.0704 9.69697 18.6817 10.303C18.7789 10.7071 18.5845 10.8081 18.5845 11.2121C18.3902 11.5152 18.293 11.9192 18.1959 12.2222C18.0015 12.5253 17.9044 12.8283 17.71 13.1313C17.3214 13.6364 16.9327 14.2424 16.544 14.7475C16.1553 15.3535 15.6695 15.7576 15.2808 16.2626C14.8921 16.7677 14.4063 17.1717 13.9204 17.5758C13.4346 17.7778 13.0459 17.9798 12.6572 18.2828C12.4629 18.3838 12.1714 18.4848 11.9771 18.5859C11.7827 18.6869 11.4912 18.6869 11.2969 18.8889C10.228 18.9899 9.06199 19.0909 7.79879 18.9899C6.8271 18.8889 5.75824 18.7879 4.88372 18.5859C4.0092 18.3838 3.42619 17.8788 2.64884 17.5758C2.84318 17.3737 3.23185 17.3737 3.62053 17.3737C3.62053 17.1717 4.00921 17.3737 4.00921 17.2727C4.30071 17.3737 4.30071 17.1717 4.49505 17.1717C5.07806 16.9697 5.66108 16.8687 6.14692 16.5657C6.43843 16.4646 6.5356 16.1616 6.8271 15.9596C6.8271 15.7576 6.92427 15.6566 7.02144 15.5556C7.02144 15.2525 7.21578 15.1515 7.11861 14.7475C7.21578 14.5455 7.41012 14.4444 7.41012 14.0404C7.31295 13.9394 7.31295 13.7374 7.11861 13.6364C7.11861 13.4343 6.72994 13.5354 6.72994 13.4343C6.43843 13.4343 6.34126 13.4343 6.14692 13.3333C5.95259 13.3333 5.66108 13.4343 5.66108 13.2323C4.88373 13.2323 4.39788 12.8283 3.81487 12.5253C4.20354 12.2222 4.78656 12.1212 5.07806 11.8182C5.56391 11.7172 6.14692 11.7172 6.14692 11.1111C6.14692 10.404 5.36957 10.404 4.88372 10.303C4.10637 9.59596 3.7177 8.58586 3.13468 7.77778C3.32902 7.57576 3.7177 7.57576 3.81487 7.37374C4.30071 7.47475 4.30071 7.07071 4.49505 6.86869C4.49505 6.36364 4.20354 6.26263 3.91203 6.06061C3.62053 5.85859 3.42619 5.55556 3.23185 5.35354C3.23185 4.54545 3.23185 3.63636 3.32902 2.92929C3.42619 2.92929 3.42619 2.92929 3.42619 3.0303C3.62053 3.43434 4.00921 3.83838 4.20354 4.24243C4.68939 4.64647 5.07806 5.15151 5.75825 5.35354C6.24409 5.75758 6.8271 5.9596 7.31295 6.36364C7.89596 6.66667 8.47898 6.9697 8.96482 7.27273C9.645 7.47475 10.0337 7.9798 10.9082 7.87879C11.1025 7.77778 11.2969 7.67677 11.4912 7.57576C11.7827 7.07071 11.394 6.46464 11.5884 5.95959C11.8799 5.25252 12.3657 4.94949 12.8516 4.44444C13.1431 4.24242 13.4346 4.14141 13.6289 3.93939C13.9204 3.83838 14.3091 3.73737 14.6006 3.53535C14.9893 3.53535 15.2808 3.43434 15.5723 3.43434H16.8355C17.0298 3.53535 17.3214 3.53535 17.5157 3.53535C17.71 3.63636 17.9044 3.83838 18.1959 3.93939C18.9732 4.64646 19.4591 5.65656 19.5562 6.9697C19.5562 7.27273 19.6534 7.67677 19.6534 8.28283ZM19.9449 2.62626C19.8477 2.92929 19.7506 3.33333 19.3619 3.43434C19.3619 3.33333 19.2647 3.33333 19.2647 3.23232C19.2647 3.0303 19.4591 3.0303 19.5562 2.92929C19.6534 2.82828 19.7506 2.62626 19.9449 2.62626C19.9449 2.52525 20.0421 2.62626 19.9449 2.62626ZM14.6006 5.65656C14.795 5.75757 14.8921 5.9596 15.0865 6.06061C15.1836 6.26263 15.378 6.36363 15.6695 6.46464C15.6695 6.26262 15.961 6.46465 16.0582 6.26263C16.2525 6.26263 16.2525 6.0606 16.3497 5.95959C16.3497 5.45454 16.2525 4.94949 15.961 4.64646C15.2808 4.14141 14.3091 4.64646 14.6006 5.65656Z" fill="currentColor"/>
</svg>

<svg viewBox="0 0 23 20" fill="none" xmlns="http://www.w3.org/2000/svg"><path d="M22.957 4.242c-.194-.404-.874-.303-1.36-.404h-1.07c.098-.404.292-.606.487-1.01.097-.404.291-.707.194-1.313L21.5.91c.097-.1.194-.505.097-.707C21.5 0 21.305 0 21.014 0c-.097 0-.195.101-.195.101-.388.404-.777 1.01-1.263 1.414h-.097c-.097 0 0 0-.097.101s-.292.202-.389.202c-.291.202-.486.404-.874.505-.486-.202-1.166-.303-1.846-.404-1.167.101-2.235.202-2.916.707-.874.303-1.457 1.01-2.04 1.616 0 .303-.292.404-.389.707 0 0 0 .102-.097.102 0 .202-.097.303-.097.505 0 .1.194.404 0 .505-.777-.101-1.458-.606-2.04-1.01-.68-.405-1.458-.607-2.041-1.112-.68-.303-1.263-.808-1.75-1.313-.194-.303-.485-.505-.68-.909-.388-.202-.194-.909-.68-.909-.291 0-.291.202-.388.404-.097.202-.389.202-.389.505 0 0 0 .101-.097.101-.195 1.111-.486 2.02-.486 3.334.097.404.292.707.583 1.01-.389.1-.68.202-.875.505-.097 1.11.39 1.616.68 2.323.098.404.39.707.584 1.01 0 .202.194.303.291.404 0 .101.097.101.097.202s.292.202.098.202c-.39.101-.972.101-1.264.404a2.154 2.154 0 0 0 0 1.111c0 .202.292.303.292.505.486.404 1.069.707 1.555 1.111.583.202 1.166.303 1.846.404-.097.303-.292.607-.583.707-.778.404-1.75.506-2.624.708-.583 0-.972.202-1.555.202-.291.1-.874.1-1.068.202-.098.1-.098.1-.195.202-.097.404.097.707.389.909 0 .303.194.303.389.404.097.202.291.303.388.404.486.505 1.263.808 1.847 1.11.777.203 1.554.405 2.429.506.874.101 1.846.101 2.72.202h.972c.486.101 1.166.101 1.846.101.097-.101.292-.101.486-.101.486-.303 1.166-.404 1.555-.707.583-.202.972-.606 1.555-.91.874-.807 1.846-1.312 2.429-2.423.194-.202.389-.405.389-.707.291-.202.388-.505.582-.708.39-.404.68-.909.972-1.414.292-.505.583-1.11.875-1.616 0-.404.291-.505.291-.909.195-.202.195-.707.389-.909 0-.303 0-.404.097-.606 0-1.313 0-2.424-.291-3.434.583-.202 1.166-.303 1.554-.607.778.304 1.263-.1 1.07-.707Zm-3.304 4.04c-.194.91-.583 1.415-.971 2.021.097.404-.098.505-.098.91-.194.302-.291.706-.388 1.01-.195.302-.292.605-.486.908-.389.505-.777 1.111-1.166 1.617-.389.606-.875 1.01-1.263 1.515-.389.505-.875.909-1.36 1.313-.486.202-.875.404-1.264.707-.194.1-.486.202-.68.303-.194.1-.486.1-.68.303-1.069.1-2.235.202-3.498.1-.972-.1-2.04-.201-2.915-.403s-1.458-.707-2.235-1.01c.194-.202.583-.202.972-.202 0-.202.388 0 .388-.101.292.1.292-.101.486-.101.583-.202 1.166-.303 1.652-.606.291-.101.389-.404.68-.606 0-.202.097-.303.194-.404 0-.303.195-.404.098-.808.097-.202.291-.304.291-.708-.097-.1-.097-.303-.291-.404 0-.202-.39-.1-.39-.202-.29 0-.388 0-.582-.1-.194 0-.486.1-.486-.102-.777 0-1.263-.404-1.846-.707.389-.303.972-.404 1.263-.707.486-.1 1.069-.1 1.069-.707 0-.707-.777-.707-1.263-.808-.778-.707-1.166-1.717-1.75-2.525.195-.202.584-.202.68-.404.487.1.487-.303.681-.505 0-.505-.291-.606-.583-.808-.291-.202-.486-.505-.68-.707 0-.809 0-1.718.097-2.425.097 0 .097 0 .097.101.195.404.583.808.778 1.212.485.404.874.91 1.554 1.112.486.404 1.07.606 1.555 1.01.583.303 1.166.606 1.652.909.68.202 1.069.707 1.943.606l.583-.303c.292-.505-.097-1.111.097-1.616.292-.707.778-1.01 1.264-1.516.291-.202.583-.303.777-.505.291-.1.68-.202.972-.404.388 0 .68-.1.971-.1h1.264c.194.1.485.1.68.1.194.101.388.303.68.404.777.707 1.263 1.718 1.36 3.03 0 .304.097.708.097 1.314Zm.292-5.656c-.097.303-.194.707-.583.808 0-.1-.097-.1-.097-.202 0-.202.194-.202.291-.303.097-.1.195-.303.389-.303 0-.1.097 0 0 0ZM14.6 5.656c.194.102.291.304.485.405.098.202.292.303.583.404 0-.202.292 0 .39-.202.194 0 .194-.202.29-.303 0-.505-.096-1.01-.388-1.314-.68-.505-1.652 0-1.36 1.01Z" fill="currentColor"/></svg>
